X:157
T:Just as the Tide was Flowing
R:hp 32
M:4/4
L:1/8
Q:2/4=90
K:G
|:G3D D2D2|EDEFG- GGA|B2B2 cBAG|E2F2 ((3EFE) D2|\
G3D D2D2|EDEFG- GGA|B2B2 cBAG|E2F2 G4:|]
|:GABc d2d2|edcB A2A2|GABc d2d2|B2c2 d4|\
GABc d2d2|edcB A2GA|B2B2 cBAG|E3D G4:|]

